X: 404
T: Down the Braes
M: 4/4
L: 1/4
I: scale 0.8
R: march
K: Em
"Em"E>DEF|G>FGA|B2e2|"G"dB2A|"Em"G>FGB|"D"AFDE|1 F2E2|"Bm"DB,2D:|
|2 "Bm"F2E2|"Em"E2ed|| "Em"B2e2|e2de|f2e2|"G"dB2d|"D"A>AAB|
"Bm"d>dde|dBAB|"D"d2FA|"Em"B2e2|e2de|f2e2|
"G"dB2d|"Em(C)"G>FGB|"D(Bm)"AFDE|"Bm(D)"F2E2|"Em"E2|]

